X: 54
T:Holly Bush
R:reel
Z:added by Alf 
M:4/4
L:1/8
K:Dmix
|:A2FA DFAG|FAde fded|cG~G2 EG~G2|cGdG cGEG|
ADFA DFAG|FAde fded|cG~G2 cGBc|d/c/AGE DEFG:|
|:Ade/d/c defg|adde dcAB|~c2cB cdeg|aged cAGc|
Addc defg|adde dcAB|c2d/c/B cAGc|AEGE EDD2:|
